src/components/atoms/Icon/icons/linkedin-large.svg

<?xml version="1.0" encoding="UTF-8"?>
<svg width="37px" height="36px" viewBox="0 0 37 36" version="1.1" xmlns="http://www.w3.org/2000/svg" xmlns:xlink="http://www.w3.org/1999/xlink">
    <!-- Generator: Sketch 49.3 (51167) - http://www.bohemiancoding.com/sketch -->
    <title>Icon/36/Social-linkedin</title>
    <desc>Created with Sketch.</desc>
    <defs></defs>
    <g id="Icon/36/Social-linkedin" stroke="none" stroke-width="1" fill="none" fill-rule="evenodd">
        <path d="M26.9428571,25.0632 L23.0782758,25.0632 L23.0782758,19.4163429 C23.0782758,17.9382857 22.4737602,16.9292571 21.144443,16.9292571 C20.1276643,16.9292571 19.5622161,17.6101714 19.2990257,18.2664 C19.2003293,18.5019429 19.2157506,18.8290286 19.2157506,19.1581714 L19.2157506,25.0632 L15.3871523,25.0632 C15.3871523,25.0632 15.4365005,15.0603429 15.3871523,14.1510857 L19.2157506,14.1510857 L19.2157506,15.8636571 C19.4419298,15.1148571 20.6653541,14.0461714 22.6176925,14.0461714 C25.039867,14.0461714 26.9428571,15.6157714 26.9428571,18.9956571 L26.9428571,25.0632 Z M11.5153743,12.7851429 L11.4907002,12.7851429 C10.256995,12.7851429 9.45714286,11.9509714 9.45714286,10.8946286 C9.45714286,9.81668571 10.280641,9 11.5390203,9 C12.7963715,9 13.5694933,9.81462857 13.5941675,10.8915429 C13.5941675,11.9489143 12.7963715,12.7851429 11.5153743,12.7851429 Z M9.89819245,25.0632 L13.3063029,25.0632 L13.3063029,14.1510857 L9.89819245,14.1510857 L9.89819245,25.0632 Z" id="Fill-4" fill="#FEFEFE"></path>
    </g>
</svg>

<svg width="37" height="36" xmlns="http://www.w3.org/2000/svg"><path d="M26.943 25.063h-3.865v-5.647c0-1.478-.604-2.487-1.934-2.487-1.016 0-1.582.681-1.845 1.337-.099.236-.083.563-.083.892v5.905h-3.829s.05-10.003 0-10.912h3.829v1.713c.226-.75 1.45-1.818 3.402-1.818 2.422 0 4.325 1.57 4.325 4.95v6.067zM11.515 12.785h-.024c-1.234 0-2.034-.834-2.034-1.89C9.457 9.817 10.281 9 11.54 9c1.257 0 2.03.815 2.055 1.892 0 1.057-.798 1.893-2.079 1.893zM9.898 25.063h3.408V14.151H9.898v10.912z" fill="#FEFEFE" fill-rule="evenodd"/></svg>
